cellphone-arrow-down.svg

<svg fill="currentColor" viewBox="0 0 24 24"><path d="M17 1H7a2 2 0 0 0-2 2v18a2 2 0 0 0 2 2h10a2 2 0 0 0 2-2V3a2 2 0 0 0-2-2m0 18H7V5h10zm-1-6h-3V8h-2v5H8l4 4z"/></svg>

<svg  viewBox="0 0 24 24" fill="currentColor"><path  d="M17,1H7A2,2 0 0,0 5,3V21A2,2 0 0,0 7,23H17A2,2 0 0,0 19,21V3A2,2 0 0,0 17,1M17,19H7V5H17V19M16,13H13V8H11V13H8L12,17L16,13Z"/></svg>
